X: 11641
T: Eileen Fahy's
R: reel
M: 4/4
K: Edorian
|:AAFA DAFA|AAFA B~e3|d~B3 AFDE|FGAF BEAE|
AAFA DAFA|AAFA B~e3|d~B3 AFDE|1 FGAF BEAE:|2 FGAF E4||
|:B2dB BBdB|A~F3 D~F3|ABdB BBdB|ABde ~f2f2|
B2dB BBd2|A~F3 ABde|edef dBAF|BFAF E4:|

